X:1
T:Ma povre bourse
T:Beaumont
T:Source : 29 Chansons musicales à 4 parties---Paris---P.Attaignant---1530. Editor : André Vierendeels (16/01/18). Notes : Original clefs : C1, C3, C3, F3 Original note values have been halved Editoroal accidentals above the stave  
T:Ma povre bourse
T:©
T:©
T:©
T:©
T:©
T:©
C:Beaumont
Z:©
%%score [ 1 [ 2 3 ] 4 ]
L:1/8
Q:1/4=100
M:2/2
K:F
V:1 treble nm="Soprano" snm="S"
V:2 treble-8 nm="Tenor 1" snm="T 1"
V:3 treble-8 nm="Tenor 2" snm="T 2"
V:4 bass nm="Bass" snm="B"
V:1
 G4 A3 B | c2 c2 A2 d2- | dc c4 B2 | c3 B/A/ G2 c2- | cB A3 G F2- | F2 E2 F4 | z2 G2 A3 B | %7
w: Ma po- vre|bour- se a mal|_ _ _ au|cueur, _ _ _ _|_ _ _ _ _||ma po- vre|
 c2 c2 A2 d2- | dc c4 B2 | c8 | z2 c2 c2 c2 | A6 A2 | B2 B2 GFGA | B2 c3 BAG | FGAF G3 A | %15
w: bour- se a mal-|* * * au|cueur,|riens au ven-|tre ne|luy de- meu- * * *|||
 B2 A4 GF | EF G3 F D2 | E2 CD EF G2- | GF F2 E2 D2- | D2 C4 B,2 | CDEF G2 A2 | G2 F2 G4 | %22
w: |* * * * re,|ne luy _ _ _ _|_ de- meu- * *||||
 G4 z2 E2 | E2 E2 F2 F2 | E3 F G2 A2- | AG G4 F2 | G2 E2 F4 | E3 D/C/ D4 | C4 z2 G2 | A3 B c2 c2 | %30
w: re, ie|croy que sy dieu|my _ _ la-|* * beu- *|||re, quel|me fe- ra dis-|
 A2 d3 c c2- | c2 B2 c3 B/A/ | G2 c3 B A2- | AG F4 E2 | F4 z2 G2 | A3 B c2 c2 | A2 d3 c c2- | %37
w: * ner _ _|_ par cueur, _ _|_ _ _ _||* quel|me fe- ra dis-|ner par- * *|
 c2 B2 c4 | z2 G2 A3 B | c2 c2 A2 d2- | dc c4 B2 | c8- | c8- | c8 |] %44
w: * * cueur,|quel le fe-|ra dis- ner par-||cueur.|_||
V:2
 z8 | z2 c2 d3 e | f2 f2 d2 g2- | gf f4 e2 | f2 FG AB c2 | F2 G2 A3 B | c2 c2 A2 d2- | dc c4 B2 | %8
w: |Ma po- vre|bour- se a mal|_ _ _ au|cueur, _ _ _ _ _|_ ma po- vre|bour- se a mal|_ _ _ au|
 c2 c2 g2 d2 | e2 f2 g4 | a4 z2 A2 | c2 c2 d4- | d2 B2 c2 g2- | g2 f2 g2 a2- | ag f4 e2 | %15
w: cueur, a mal au-||cueur, riens|au ven- tre|_ ne luy de-|* meu- * *||
 d2 c4 B2 | c4 z2 g2- | gfed c2 d2- | d2 B2 c2 dc | BA A4 GF | G2 g4 fe | d2 c2 d4 | e4 z2 c2 | %23
w: |re, ne|_ _ _ _ _ luy|_ de- meu- * *||re, ne- * *|luy de meu-|re, ie|
 c2 c2 c2 c2 | g3 f ed c2 | _e4 d2 c2- | cBAG F3 G | AB c4 B2 | c3 d ef g2- | gf f2 e2 c2 | %30
w: croy que sy dieu|my _ _ _ _|la- * beu-||||* * * re, quel|
 d3 e f2 f2 | d2 g3 f f2- | f2 e2 f2 FG | AB c2 F2 G2 | A3 B c2 c2 | A2 d3 c c2- | c2 B2 c2 c2 | %37
w: me _ _ fe-|ra dis- * *|* * ner par _|_ _ cueur, quel me|fe- * * ra|dis- ner- * *|* par cueur, quel|
 g2 g2 e2 a2- | ag g4 f2 | g2 a4 gf | e2 a2 g2 g2 | e2 a4 g2 | a8 | g8 |] %44
w: me fe- ra dis-|* * ner par|cueur, quel _ _|me fe- ra dis-|ner par- *||cueur.|
V:3
 z8 | z8 | z4 G4 | A3 B c2 c2 | A2 d3 c c2- | c2 B2 c3 B/A/ | GF G2 F4 | z2 c2 d3 e | %8
w: ||Ma|po- vre bour- se|a mal- * *||* * au cueur,|ma po- vre|
 f2 f2 d2 g2- | gf f2 e4 | f4 z2 f2 | f2 f2 d4 | d4 e4 | d2 c2 d4 | c8 | z4 z2 F2 | A2 G2 A2 B2 | %17
w: bour- se a mal|_ _ _ _|cueur, riens|au ven- tre|ne luy|de- * meu-|re,|riens|au ventre ne luy|
 c3 B/A/ G2 B2 | A2 GF G4 | F4 z2 f2- | f2 e4 dc |"^b""^b" =B2 c2 cBBA/G/ | c4 z2 G2 | %23
w: de- * * * meu-||re, ne|_ luy _ _|_ de- meu- * * * *|re, ie|
 G2 G2 A2 A2 | G2 c4 A2 | B2 c2 A4 | G2 c4 B2 | c3 B/A/ G2 g2- | gf f4 e2 | d2 c3 BAG | F4 z4 | %31
w: croy que sy dieu|my la- beu-|||* * * re, my|_ _ _ la-|beu- * * * *|re,|
 G4 A3 B | c2 c2 A2 d2- | dc c4 B2 | c3 B/A/ GF G2 | F4 z2 c2 | d3 e f2 f2 | d2 g3 f f2- | %38
w: quel me _|_ fe- ra dis-||ner _ _ _ _ par|cueur, quel|me _ _ fe-|ra dis- * ner|
 f2 e2 f4 | z2 F2 F2 G2 | ABcd ef g2- | g2 f4 ed | e2 f2 c2 f2- | f2 ed e4 |] %44
w: _ par cueur,|quel me fe-|ra _ _ _ _ _ _|_ dis- * *|* * ner par-|* * * cueur.|
V:4
 z8 | z8 | z8 | z4 z2 C,2 | D,3 E, F,2 F,2 | D,2 G,3 F, F,2- | F,2 E,2 F,2 D,2 | A,3 A, F,2 B,2 | %8
w: |||ma|po- vre bour- se|a mal- * au-|* * cueur, ma|po- vre bour- se|
 A,2 F,2 G,2 B,2 | A,2 F,2 C4 | F,4 z2 F,2 | F,2 F,2 D,2 D,2 | G,2 G,2 C,D,E,F, | %13
w: a mal _ _|_ _ au|cueur, riens|au ven- tre ne|luy de- meu- * * *|
 G,2 A,2 G,2 F,2- | F,E, F,2 C,4 | z2 A,,2 D,2 D,2 | C,2 E,2 F,2 G,2 | C,6 B,,2 | D,4 C,2 B,,2- | %19
w: |* * * re,|riens au ven-|tre ne luy de-|meu- *||
 B,,2 C,2 D,4 | C,3 D, E,2 F,2 | G,2 A,2 G,4 | C,4 z2 C,2 | C,2 C,2 F,2 F,2 | C,3 D, E,2 F,2 | %25
w: |||re, ie|croy que sy dieu|my _ _ la-|
 _E,2 C,2 D,2 F,2- | F,E, C,2 D,4 | C,4 z2 G,2 | A,3 B, C2 C2 | F,3 G, A,2 A,2 | D,4 z4 | z8 | %32
w: beu- * * *||re, quel|me- * * fe-|ra dis- ner par|cueur,||
 C,4 D,3 E, | F,2 F,2 D,2 G,2- | G,F, F,4 E,2 | F,2 D,2 A,3 A, | F,2 B,2 A,2 F,2 | G,2 G,2 A,3 B, | %38
w: quel me _|_ fe- ra dis-|* * ner par|cueur, quel me fe-|ra dis- ner par|cueur, quel me- *|
 C2 C2 A,2 D2- | DC C4 B,2 | C4 z2 G,2 | A,3 B, C2 C2 |"^-natural" A,2 F,3 G,A,B, | C8 |] %44
w: * fe- ra dis-|* * ner par|cueur, quel|me- fe- ra dis-|ner par _ _ _|cueur.|

